{
  "type": "map",
  "version": "1.10",
  "tiledversion": "1.10.2",
  "orientation": "orthogonal",
  "renderorder": "right-down",
  "infinite": false,
  "width": 28,
  "height": 36,
  "tilewidth": 16,
  "tileheight": 16,
  "nextlayerid": 4,
  "nextobjectid": 15,
  "tilesets": [
    {
      "firstgid": 1,
      "source": "castle.tsx"
    }
  ],
  "properties": [
    {
      "name": "index",
      "type": "int",
      "value": 10
    },
    {
      "name": "biome",
      "type": "string",
      "value": "frosted_keep"
    }
  ],
  "layers": [
    {
      "id": 1,
      "name": "terrain",
      "type": "tilelayer",
      "width": 28,
      "height": 36,
      "visible": true,
      "opacity": 1,
      "x": 0,
      "y": 0,
      "data": [
        0,
        0,
        0,
        0,
        0,
        0,
        0,
        0,
        0,
        0,
        0,
        0,
        0,
        0,
        0,
        0,
        0,
        0,
        0,
        0,
        0,
        0,
        0,
        0,
        0,
        0,
        0,
        0,
        0,
        0,
        0,
        0,
        0,
        0,
        0,
        0,
        0,
        0,
        0,
        0,
        0,
        0,
        0,
        0,
        0,
        0,
        0,
        0,
        0,
        0,
        0,
        0,
        0,
        0,
        0,
        0,
        0,
        0,
        0,
        0,
        0,
        0,
        0,
        38,
        38,
        38,
        38,
        38,
        0,
        0,
        0,
        0,
        0,
        0,
        0,
        0,
        0,
        0,
        0,
        0,
        0,
        0,
        0,
        0,
        0,
        0,
        0,
        0,
        0,
        0,
        0,
        0,
        0,
        0,
        0,
        0,
        0,
        0,
        0,
        0,
        0,
        0,
        0,
        0,
        0,
        0,
        0,
        0,
        0,
        0,
        0,
        0,
        0,
        0,
        0,
        0,
        0,
        0,
        0,
        0,
        0,
        0,
        0,
        0,
        0,
        0,
        0,
        0,
        0,
        0,
        0,
        0,
        0,
        0,
        0,
        0,
        0,
        0,
        0,
        0,
        0,
        0,
        0,
        0,
        0,
        0,
        0,
        0,
        0,
        0,
        0,
        0,
        0,
        38,
        38,
        38,
        38,
        38,
        0,
        0,
        0,
        0,
        0,
        0,
        0,
        0,
        0,
        0,
        0,
        0,
        0,
        0,
        0,
        0,
        0,
        0,
        0,
        0,
        0,
        0,
        0,
        0,
        0,
        0,
        0,
        0,
        0,
        0,
        0,
        0,
        0,
        0,
        0,
        0,
        0,
        0,
        0,
        0,
        0,
        0,
        0,
        0,
        0,
        0,
        0,
        0,
        0,
        0,
        0,
        0,
        0,
        0,
        0,
        0,
        0,
        0,
        0,
        0,
        0,
        0,
        0,
        0,
        0,
        0,
        0,
        0,
        0,
        0,
        0,
        0,
        0,
        0,
        0,
        0,
        0,
        0,
        0,
        0,
        0,
        0,
        0,
        0,
        0,
        38,
        38,
        38,
        38,
        38,
        0,
        0,
        0,
        0,
        0,
        0,
        0,
        0,
        0,
        0,
        0,
        0,
        0,
        0,
        0,
        0,
        0,
        0,
        0,
        0,
        0,
        0,
        0,
        0,
        0,
        0,
        0,
        0,
        0,
        0,
        0,
        0,
        0,
        0,
        0,
        0,
        0,
        0,
        0,
        0,
        0,
        0,
        0,
        0,
        0,
        0,
        0,
        0,
        0,
        0,
        0,
        0,
        0,
        0,
        0,
        0,
        0,
        0,
        0,
        0,
        0,
        0,
        0,
        0,
        0,
        0,
        0,
        0,
        0,
        0,
        0,
        0,
        0,
        38,
        38,
        38,
        38,
        38,
        0,
        0,
        0,
        0,
        0,
        0,
        0,
        0,
        0,
        0,
        0,
        0,
        0,
        0,
        0,
        0,
        0,
        0,
        0,
        0,
        0,
        0,
        0,
        0,
        0,
        0,
        0,
        0,
        0,
        0,
        0,
        0,
        0,
        0,
        0,
        0,
        0,
        0,
        0,
        0,
        0,
        0,
        0,
        0,
        0,
        0,
        0,
        0,
        0,
        0,
        0,
        0,
        0,
        0,
        0,
        0,
        0,
        0,
        0,
        0,
        0,
        0,
        0,
        0,
        0,
        0,
        0,
        0,
        0,
        0,
        0,
        0,
        0,
        0,
        0,
        0,
        0,
        0,
        0,
        0,
        0,
        0,
        0,
        0,
        0,
        38,
        38,
        38,
        38,
        38,
        0,
        0,
        0,
        0,
        0,
        0,
        0,
        0,
        0,
        0,
        0,
        0,
        0,
        0,
        0,
        0,
        0,
        0,
        0,
        0,
        0,
        0,
        0,
        0,
        0,
        0,
        0,
        0,
        0,
        0,
        0,
        0,
        0,
        0,
        0,
        0,
        0,
        0,
        0,
        0,
        0,
        0,
        0,
        0,
        0,
        0,
        0,
        0,
        0,
        0,
        0,
        0,
        0,
        0,
        0,
        0,
        0,
        0,
        0,
        0,
        0,
        0,
        0,
        0,
        0,
        0,
        0,
        0,
        0,
        0,
        0,
        0,
        0,
        38,
        38,
        38,
        38,
        38,
        0,
        0,
        0,
        0,
        0,
        0,
        0,
        0,
        0,
        0,
        38,
        38,
        38,
        38,
        38,
        0,
        0,
        0,
        0,
        0,
        0,
        0,
        0,
        0,
        0,
        0,
        0,
        0,
        0,
        0,
        0,
        0,
        0,
        0,
        0,
        0,
        0,
        0,
        0,
        0,
        0,
        0,
        0,
        0,
        0,
        0,
        0,
        0,
        0,
        0,
        0,
        0,
        0,
        0,
        0,
        0,
        0,
        0,
        0,
        0,
        0,
        0,
        0,
        0,
        0,
        0,
        0,
        0,
        0,
        0,
        0,
        0,
        0,
        0,
        0,
        0,
        0,
        0,
        0,
        0,
        0,
        0,
        0,
        0,
        0,
        38,
        38,
        38,
        38,
        38,
        0,
        0,
        0,
        0,
        0,
        0,
        0,
        0,
        0,
        0,
        0,
        0,
        0,
        0,
        0,
        0,
        0,
        0,
        0,
        0,
        0,
        0,
        0,
        0,
        0,
        0,
        0,
        0,
        0,
        0,
        0,
        0,
        0,
        0,
        0,
        0,
        0,
        0,
        0,
        0,
        0,
        0,
        0,
        0,
        0,
        0,
        0,
        0,
        0,
        0,
        0,
        0,
        0,
        0,
        0,
        0,
        0,
        0,
        0,
        0,
        0,
        0,
        0,
        0,
        0,
        0,
        0,
        0,
        0,
        0,
        0,
        0,
        0,
        38,
        38,
        38,
        38,
        38,
        0,
        0,
        0,
        0,
        0,
        0,
        0,
        0,
        0,
        0,
        0,
        0,
        0,
        0,
        0,
        0,
        0,
        0,
        0,
        0,
        0,
        0,
        0,
        0,
        0,
        0,
        0,
        0,
        0,
        0,
        0,
        0,
        0,
        0,
        0,
        0,
        0,
        0,
        0,
        0,
        0,
        0,
        0,
        0,
        0,
        0,
        0,
        0,
        0,
        0,
        0,
        0,
        0,
        0,
        0,
        0,
        0,
        0,
        0,
        0,
        0,
        0,
        0,
        0,
        0,
        0,
        0,
        0,
        0,
        0,
        0,
        0,
        0,
        0,
        0,
        0,
        0,
        0,
        0,
        0,
        0,
        0,
        0,
        0,
        0,
        38,
        38,
        38,
        38,
        38,
        0,
        0,
        0,
        0,
        0,
        0,
        0,
        0,
        0,
        0,
        0,
        0,
        0,
        0,
        0,
        0,
        0,
        0,
        0,
        0,
        0,
        0,
        0,
        0,
        0,
        0,
        0,
        0,
        0,
        0,
        0,
        0,
        0,
        0,
        0,
        0,
        0,
        0,
        0,
        0,
        0,
        0,
        0,
        0,
        0,
        0,
        0,
        0,
        0,
        0,
        0,
        0,
        0,
        0,
        0,
        0,
        0,
        0,
        0,
        0,
        0,
        0,
        0,
        0,
        0,
        0,
        0,
        0,
        0,
        0,
        0,
        0,
        0,
        38,
        38,
        38,
        38,
        38,
        0,
        0,
        0,
        0,
        0,
        0,
        0,
        0,
        0,
        0,
        0,
        0,
        0,
        0,
        0,
        0,
        0,
        0,
        0,
        0,
        0,
        0,
        0,
        0,
        0,
        0,
        0,
        0,
        0,
        0,
        0,
        0,
        38,
        38,
        38,
        38,
        38,
        0,
        0,
        0,
        0,
        0,
        0,
        0,
        0,
        0,
        0,
        0,
        0,
        0,
        0,
        0,
        0,
        0,
        0,
        0,
        0,
        0,
        0,
        0,
        0,
        0,
        0,
        0,
        0,
        0,
        0,
        0,
        0,
        0,
        0,
        0,
        0,
        38,
        38,
        38,
        38,
        38,
        0,
        0,
        0,
        0,
        0,
        0,
        0,
        0,
        0,
        0,
        0,
        0,
        0,
        0,
        0,
        0,
        0,
        0,
        0,
        0,
        0,
        0,
        0,
        0,
        0,
        0,
        0,
        0,
        0,
        0,
        0,
        0,
        0,
        0,
        0,
        0,
        0,
        0,
        0,
        0,
        0,
        0,
        0,
        0,
        0,
        0,
        0,
        0,
        0,
        0,
        0,
        0,
        0,
        0,
        0,
        0,
        0,
        0,
        0,
        0,
        0,
        0,
        0,
        0,
        0,
        0,
        0,
        0,
        0,
        0,
        0,
        0,
        0,
        0,
        0,
        0,
        0,
        0,
        0,
        0,
        0,
        0,
        0,
        0,
        0,
        38,
        38,
        38,
        38,
        38,
        0,
        0,
        0,
        0,
        0,
        0,
        0,
        0,
        0,
        0
      ]
    },
    {
      "id": 2,
      "name": "collision",
      "type": "objectgroup",
      "visible": true,
      "opacity": 1,
      "draworder": "topdown",
      "x": 0,
      "y": 0,
      "objects": [
        {
          "id": 1,
          "name": "",
          "type": "solid",
          "x": 0,
          "y": 0,
          "width": 0,
          "height": 0,
          "rotation": 0,
          "visible": true,
          "polygon": [
            {
              "x": 112.0,
              "y": 32.0
            },
            {
              "x": 192.0,
              "y": 32.0
            },
            {
              "x": 192.0,
              "y": 48.0
            },
            {
              "x": 112.0,
              "y": 48.0
            }
          ]
        },
        {
          "id": 2,
          "name": "",
          "type": "solid",
          "x": 0,
          "y": 0,
          "width": 0,
          "height": 0,
          "rotation": 0,
          "visible": true,
          "polygon": [
            {
              "x": 208.0,
              "y": 80.0
            },
            {
              "x": 288.0,
              "y": 80.0
            },
            {
              "x": 288.0,
              "y": 96.0
            },
            {
              "x": 208.0,
              "y": 96.0
            }
          ]
        },
        {
          "id": 3,
          "name": "",
          "type": "solid",
          "x": 0,
          "y": 0,
          "width": 0,
          "height": 0,
          "rotation": 0,
          "visible": true,
          "polygon": [
            {
              "x": 304.0,
              "y": 128.0
            },
            {
              "x": 384.0,
              "y": 128.0
            },
            {
              "x": 384.0,
              "y": 144.0
            },
            {
              "x": 304.0,
              "y": 144.0
            }
          ]
        },
        {
          "id": 4,
          "name": "",
          "type": "solid",
          "x": 0,
          "y": 0,
          "width": 0,
          "height": 0,
          "rotation": 0,
          "visible": true,
          "polygon": [
            {
              "x": 208.0,
              "y": 176.0
            },
            {
              "x": 288.0,
              "y": 176.0
            },
            {
              "x": 288.0,
              "y": 192.0
            },
            {
              "x": 208.0,
              "y": 192.0
            }
          ]
        },
        {
          "id": 5,
          "name": "",
          "type": "solid",
          "x": 0,
          "y": 0,
          "width": 0,
          "height": 0,
          "rotation": 0,
          "visible": true,
          "polygon": [
            {
              "x": 304.0,
              "y": 224.0
            },
            {
              "x": 384.0,
              "y": 224.0
            },
            {
              "x": 384.0,
              "y": 240.0
            },
            {
              "x": 304.0,
              "y": 240.0
            }
          ]
        },
        {
          "id": 6,
          "name": "",
          "type": "solid",
          "x": 0,
          "y": 0,
          "width": 0,
          "height": 0,
          "rotation": 0,
          "visible": true,
          "polygon": [
            {
              "x": 208.0,
              "y": 272.0
            },
            {
              "x": 288.0,
              "y": 272.0
            },
            {
              "x": 288.0,
              "y": 288.0
            },
            {
              "x": 208.0,
              "y": 288.0
            }
          ]
        },
        {
          "id": 7,
          "name": "",
          "type": "solid",
          "x": 0,
          "y": 0,
          "width": 0,
          "height": 0,
          "rotation": 0,
          "visible": true,
          "polygon": [
            {
              "x": 0.0,
              "y": 288.0
            },
            {
              "x": 80.0,
              "y": 288.0
            },
            {
              "x": 80.0,
              "y": 304.0
            },
            {
              "x": 0.0,
              "y": 304.0
            }
          ]
        },
        {
          "id": 8,
          "name": "",
          "type": "solid",
          "x": 0,
          "y": 0,
          "width": 0,
          "height": 0,
          "rotation": 0,
          "visible": true,
          "polygon": [
            {
              "x": 304.0,
              "y": 320.0
            },
            {
              "x": 384.0,
              "y": 320.0
            },
            {
              "x": 384.0,
              "y": 336.0
            },
            {
              "x": 304.0,
              "y": 336.0
            }
          ]
        },
        {
          "id": 9,
          "name": "",
          "type": "solid",
          "x": 0,
          "y": 0,
          "width": 0,
          "height": 0,
          "rotation": 0,
          "visible": true,
          "polygon": [
            {
              "x": 208.0,
              "y": 368.0
            },
            {
              "x": 288.0,
              "y": 368.0
            },
            {
              "x": 288.0,
              "y": 384.0
            },
            {
              "x": 208.0,
              "y": 384.0
            }
          ]
        },
        {
          "id": 10,
          "name": "",
          "type": "solid",
          "x": 0,
          "y": 0,
          "width": 0,
          "height": 0,
          "rotation": 0,
          "visible": true,
          "polygon": [
            {
              "x": 304.0,
              "y": 416.0
            },
            {
              "x": 384.0,
              "y": 416.0
            },
            {
              "x": 384.0,
              "y": 432.0
            },
            {
              "x": 304.0,
              "y": 432.0
            }
          ]
        },
        {
          "id": 11,
          "name": "",
          "type": "solid",
          "x": 0,
          "y": 0,
          "width": 0,
          "height": 0,
          "rotation": 0,
          "visible": true,
          "polygon": [
            {
              "x": 208.0,
              "y": 464.0
            },
            {
              "x": 288.0,
              "y": 464.0
            },
            {
              "x": 288.0,
              "y": 480.0
            },
            {
              "x": 208.0,
              "y": 480.0
            }
          ]
        },
        {
          "id": 12,
          "name": "",
          "type": "solid",
          "x": 0,
          "y": 0,
          "width": 0,
          "height": 0,
          "rotation": 0,
          "visible": true,
          "polygon": [
            {
              "x": 352.0,
              "y": 480.0
            },
            {
              "x": 432.0,
              "y": 480.0
            },
            {
              "x": 432.0,
              "y": 496.0
            },
            {
              "x": 352.0,
              "y": 496.0
            }
          ]
        },
        {
          "id": 13,
          "name": "",
          "type": "solid",
          "x": 0,
          "y": 0,
          "width": 0,
          "height": 0,
          "rotation": 0,
          "visible": true,
          "polygon": [
            {
              "x": 112.0,
              "y": 512.0
            },
            {
              "x": 192.0,
              "y": 512.0
            },
            {
              "x": 192.0,
              "y": 528.0
            },
            {
              "x": 112.0,
              "y": 528.0
            }
          ]
        },
        {
          "id": 14,
          "name": "",
          "type": "solid",
          "x": 0,
          "y": 0,
          "width": 0,
          "height": 0,
          "rotation": 0,
          "visible": true,
          "polygon": [
            {
              "x": 208.0,
              "y": 560.0
            },
            {
              "x": 288.0,
              "y": 560.0
            },
            {
              "x": 288.0,
              "y": 576.0
            },
            {
              "x": 208.0,
              "y": 576.0
            }
          ]
        }
      ]
    },
    {
      "id": 3,
      "name": "entities",
      "type": "objectgroup",
      "visible": true,
      "opacity": 1,
      "draworder": "topdown",
      "x": 0,
      "y": 0,
      "objects": []
    }
  ]
}
