{
  "type": "map",
  "version": "1.10",
  "tiledversion": "1.10.2",
  "orientation": "orthogonal",
  "renderorder": "right-down",
  "infinite": false,
  "width": 28,
  "height": 36,
  "tilewidth": 16,
  "tileheight": 16,
  "nextlayerid": 4,
  "nextobjectid": 56,
  "tilesets": [
    {
      "firstgid": 1,
      "source": "castle.tsx"
    }
  ],
  "properties": [
    {
      "name": "index",
      "type": "int",
      "value": 1
    },
    {
      "name": "biome",
      "type": "string",
      "value": "crown_spire"
    }
  ],
  "layers": [
    {
      "id": 1,
      "name": "terrain",
      "type": "tilelayer",
      "width": 28,
      "height": 36,
      "visible": true,
      "opacity": 1,
      "x": 0,
      "y": 0,
      "data": [
        0,
        0,
        0,
        0,
        0,
        0,
        0,
        0,
        0,
        0,
        0,
        0,
        0,
        0,
        0,
        0,
        0,
        0,
        0,
        0,
        0,
        0,
        0,
        0,
        0,
        0,
        0,
        0,
        0,
        0,
        0,
        0,
        0,
        0,
        0,
        0,
        0,
        0,
        0,
        0,
        17,
        18,
        18,
        18,
        19,
        0,
        0,
        0,
        0,
        0,
        0,
        0,
        0,
        0,
        0,
        0,
        0,
        0,
        0,
        0,
        0,
        0,
        0,
        22,
        23,
        23,
        18,
        18,
        42,
        42,
        42,
        42,
        43,
        0,
        0,
        0,
        0,
        0,
        0,
        0,
        0,
        0,
        0,
        0,
        0,
        0,
        0,
        0,
        0,
        0,
        0,
        0,
        0,
        0,
        41,
        42,
        42,
        42,
        42,
        42,
        43,
        0,
        0,
        0,
        0,
        0,
        0,
        0,
        0,
        0,
        0,
        0,
        0,
        0,
        0,
        0,
        0,
        0,
        0,
        0,
        0,
        22,
        42,
        42,
        42,
        42,
        42,
        42,
        43,
        0,
        0,
        0,
        0,
        0,
        0,
        0,
        0,
        0,
        0,
        0,
        0,
        22,
        23,
        23,
        23,
        24,
        0,
        0,
        0,
        0,
        65,
        66,
        66,
        42,
        42,
        42,
        43,
        0,
        0,
        0,
        0,
        0,
        0,
        0,
        0,
        0,
        0,
        0,
        0,
        0,
        0,
        0,
        0,
        0,
        0,
        0,
        0,
        0,
        0,
        0,
        0,
        65,
        66,
        42,
        43,
        0,
        0,
        0,
        0,
        0,
        0,
        0,
        0,
        0,
        0,
        0,
        0,
        0,
        17,
        18,
        18,
        19,
        0,
        0,
        0,
        0,
        0,
        0,
        0,
        0,
        0,
        65,
        67,
        0,
        17,
        18,
        18,
        18,
        18,
        18,
        18,
        19,
        0,
        0,
        0,
        0,
        41,
        42,
        42,
        42,
        18,
        18,
        23,
        23,
        23,
        24,
        0,
        0,
        0,
        0,
        0,
        0,
        65,
        42,
        42,
        42,
        42,
        42,
        42,
        43,
        0,
        0,
        0,
        0,
        41,
        42,
        42,
        42,
        42,
        43,
        0,
        0,
        0,
        0,
        0,
        0,
        0,
        0,
        0,
        0,
        0,
        65,
        66,
        69,
        42,
        66,
        66,
        67,
        0,
        0,
        0,
        0,
        41,
        42,
        42,
        68,
        42,
        42,
        18,
        18,
        18,
        19,
        0,
        0,
        0,
        0,
        0,
        0,
        0,
        0,
        0,
        65,
        43,
        0,
        0,
        0,
        0,
        0,
        0,
        0,
        41,
        42,
        42,
        42,
        42,
        42,
        42,
        42,
        42,
        42,
        18,
        18,
        23,
        23,
        23,
        24,
        0,
        0,
        0,
        0,
        47,
        0,
        0,
        0,
        0,
        0,
        0,
        0,
        41,
        42,
        42,
        42,
        42,
        42,
        42,
        42,
        42,
        42,
        42,
        43,
        0,
        0,
        0,
        0,
        0,
        0,
        0,
        0,
        0,
        22,
        18,
        18,
        18,
        19,
        0,
        0,
        65,
        42,
        42,
        42,
        42,
        42,
        42,
        42,
        42,
        42,
        42,
        67,
        0,
        0,
        0,
        0,
        0,
        0,
        0,
        0,
        0,
        0,
        41,
        42,
        42,
        43,
        0,
        0,
        0,
        41,
        42,
        42,
        42,
        42,
        42,
        66,
        66,
        66,
        67,
        0,
        0,
        0,
        0,
        0,
        0,
        22,
        23,
        23,
        23,
        18,
        42,
        42,
        42,
        43,
        0,
        0,
        0,
        65,
        66,
        42,
        42,
        42,
        67,
        0,
        0,
        0,
        0,
        0,
        0,
        0,
        0,
        0,
        0,
        0,
        0,
        0,
        0,
        41,
        42,
        42,
        42,
        43,
        0,
        0,
        0,
        0,
        0,
        41,
        42,
        67,
        0,
        0,
        0,
        0,
        0,
        0,
        0,
        0,
        0,
        0,
        17,
        18,
        18,
        18,
        18,
        42,
        69,
        42,
        42,
        43,
        0,
        0,
        0,
        0,
        0,
        41,
        43,
        0,
        0,
        0,
        0,
        0,
        0,
        22,
        23,
        18,
        18,
        18,
        42,
        42,
        42,
        42,
        42,
        42,
        42,
        42,
        42,
        43,
        17,
        18,
        18,
        18,
        18,
        42,
        67,
        0,
        0,
        0,
        0,
        0,
        0,
        0,
        0,
        41,
        42,
        68,
        42,
        42,
        42,
        42,
        42,
        42,
        42,
        42,
        42,
        43,
        41,
        42,
        42,
        42,
        42,
        43,
        0,
        0,
        0,
        0,
        0,
        0,
        0,
        0,
        0,
        65,
        42,
        42,
        42,
        42,
        42,
        42,
        42,
        42,
        42,
        66,
        66,
        67,
        41,
        42,
        42,
        42,
        42,
        43,
        0,
        22,
        23,
        23,
        23,
        24,
        0,
        0,
        0,
        0,
        65,
        66,
        66,
        42,
        42,
        42,
        42,
        42,
        43,
        0,
        0,
        0,
        41,
        42,
        42,
        42,
        42,
        43,
        0,
        0,
        0,
        0,
        0,
        0,
        0,
        0,
        0,
        0,
        0,
        0,
        0,
        65,
        66,
        42,
        42,
        66,
        67,
        0,
        0,
        0,
        65,
        66,
        66,
        66,
        66,
        66,
        24,
        0,
        0,
        17,
        18,
        19,
        0,
        0,
        0,
        0,
        0,
        0,
        0,
        0,
        0,
        65,
        43,
        0,
        0,
        0,
        0,
        0,
        0,
        0,
        0,
        0,
        0,
        0,
        0,
        0,
        0,
        41,
        42,
        42,
        18,
        18,
        23,
        23,
        23,
        24,
        0,
        0,
        0,
        0,
        47,
        0,
        0,
        0,
        0,
        0,
        0,
        0,
        0,
        0,
        0,
        0,
        0,
        0,
        0,
        41,
        42,
        42,
        42,
        43,
        0,
        0,
        0,
        0,
        0,
        0,
        0,
        0,
        0,
        22,
        18,
        18,
        18,
        19,
        0,
        0,
        0,
        0,
        0,
        0,
        0,
        0,
        0,
        41,
        42,
        42,
        42,
        67,
        0,
        0,
        0,
        0,
        0,
        0,
        0,
        0,
        0,
        0,
        41,
        42,
        42,
        43,
        0,
        0,
        0,
        17,
        18,
        18,
        18,
        18,
        18,
        42,
        42,
        42,
        43,
        0,
        0,
        0,
        0,
        0,
        0,
        22,
        23,
        23,
        23,
        18,
        42,
        42,
        42,
        43,
        0,
        0,
        0,
        65,
        66,
        42,
        42,
        42,
        42,
        66,
        66,
        66,
        67,
        0,
        0,
        0,
        0,
        0,
        0,
        0,
        0,
        0,
        0,
        41,
        42,
        42,
        42,
        43,
        0,
        0,
        0,
        0,
        0,
        41,
        42,
        42,
        43,
        0,
        0,
        0,
        0,
        0,
        0,
        0,
        0,
        0,
        0,
        0,
        0,
        22,
        18,
        42,
        42,
        42,
        42,
        43,
        0,
        0,
        0,
        0,
        0,
        41,
        42,
        42,
        43,
        0,
        0,
        0,
        0,
        22,
        23,
        23,
        23,
        24,
        0,
        0,
        0,
        0,
        65,
        66,
        42,
        42,
        42,
        43,
        17,
        18,
        18,
        18,
        18,
        42,
        42,
        42,
        43,
        0,
        0,
        0,
        0,
        0,
        0,
        0,
        0,
        0,
        0,
        0,
        0,
        0,
        0,
        0,
        41,
        42,
        42,
        43,
        41,
        42,
        42,
        42,
        42,
        42,
        42,
        42,
        43,
        0,
        0,
        0,
        0,
        0,
        0,
        0,
        0,
        0,
        0,
        0,
        0,
        0,
        0,
        0,
        41,
        42,
        42,
        43,
        41,
        42,
        42,
        42,
        42,
        42,
        42,
        42,
        43,
        0,
        0,
        0,
        0,
        0,
        0,
        0,
        0,
        0,
        0,
        22,
        23,
        23,
        23,
        18,
        42,
        42,
        42,
        43,
        41,
        42,
        42,
        42,
        42,
        42,
        42,
        42,
        43,
        0,
        0,
        0,
        0,
        0,
        0,
        0,
        0,
        0,
        0,
        0,
        0,
        0,
        0,
        41,
        42,
        42,
        42,
        43,
        65,
        66,
        66,
        66,
        66,
        66,
        66,
        66,
        67,
        0,
        0,
        0,
        0,
        0,
        0,
        0,
        0,
        0,
        0,
        0,
        0,
        22,
        23,
        66,
        66,
        66,
        66,
        67,
        0,
        0,
        0,
        0,
        0,
        0,
        0,
        0,
        0,
        0,
        0,
        0,
        0,
        22,
        23,
        23,
        23,
        24,
        0,
        0,
        0,
        0,
        0,
        0,
        0,
        0,
        0,
        0
      ]
    },
    {
      "id": 2,
      "name": "collision",
      "type": "objectgroup",
      "visible": true,
      "opacity": 1,
      "draworder": "topdown",
      "x": 0,
      "y": 0,
      "objects": [
        {
          "id": 1,
          "name": "",
          "type": "solid",
          "x": 0,
          "y": 0,
          "width": 0,
          "height": 0,
          "rotation": 0,
          "visible": true,
          "polygon": [
            {
              "x": 192.0,
              "y": 16.0
            },
            {
              "x": 272.0,
              "y": 16.0
            },
            {
              "x": 272.0,
              "y": 96.0
            },
            {
              "x": 192.0,
              "y": 96.0
            }
          ]
        },
        {
          "id": 2,
          "name": "",
          "type": "solid",
          "x": 0,
          "y": 0,
          "width": 0,
          "height": 0,
          "rotation": 0,
          "visible": true,
          "polygon": [
            {
              "x": 112.0,
              "y": 32.0
            },
            {
              "x": 192.0,
              "y": 32.0
            },
            {
              "x": 192.0,
              "y": 48.0
            },
            {
              "x": 112.0,
              "y": 48.0
            }
          ]
        },
        {
          "id": 3,
          "name": "",
          "type": "solid",
          "x": 0,
          "y": 0,
          "width": 0,
          "height": 0,
          "rotation": 0,
          "visible": true,
          "polygon": [
            {
              "x": 160.0,
              "y": 48.0
            },
            {
              "x": 192.0,
              "y": 48.0
            },
            {
              "x": 192.0,
              "y": 96.0
            },
            {
              "x": 160.0,
              "y": 96.0
            }
          ]
        },
        {
          "id": 4,
          "name": "",
          "type": "solid",
          "x": 0,
          "y": 0,
          "width": 0,
          "height": 0,
          "rotation": 0,
          "visible": true,
          "polygon": [
            {
              "x": 144.0,
              "y": 64.0
            },
            {
              "x": 160.0,
              "y": 64.0
            },
            {
              "x": 160.0,
              "y": 80.0
            },
            {
              "x": 144.0,
              "y": 80.0
            }
          ]
        },
        {
          "id": 5,
          "name": "",
          "type": "solid",
          "x": 0,
          "y": 0,
          "width": 0,
          "height": 0,
          "rotation": 0,
          "visible": true,
          "polygon": [
            {
              "x": 16.0,
              "y": 80.0
            },
            {
              "x": 96.0,
              "y": 80.0
            },
            {
              "x": 96.0,
              "y": 96.0
            },
            {
              "x": 16.0,
              "y": 96.0
            }
          ]
        },
        {
          "id": 6,
          "name": "",
          "type": "solid",
          "x": 0,
          "y": 0,
          "width": 0,
          "height": 0,
          "rotation": 0,
          "visible": true,
          "polygon": [
            {
              "x": 208.0,
              "y": 96.0
            },
            {
              "x": 272.0,
              "y": 96.0
            },
            {
              "x": 272.0,
              "y": 112.0
            },
            {
              "x": 208.0,
              "y": 112.0
            }
          ]
        },
        {
          "id": 7,
          "name": "",
          "type": "solid",
          "x": 0,
          "y": 0,
          "width": 0,
          "height": 0,
          "rotation": 0,
          "visible": true,
          "polygon": [
            {
              "x": 32.0,
              "y": 112.0
            },
            {
              "x": 96.0,
              "y": 112.0
            },
            {
              "x": 96.0,
              "y": 224.0
            },
            {
              "x": 32.0,
              "y": 224.0
            }
          ]
        },
        {
          "id": 8,
          "name": "",
          "type": "solid",
          "x": 0,
          "y": 0,
          "width": 0,
          "height": 0,
          "rotation": 0,
          "visible": true,
          "polygon": [
            {
              "x": 240.0,
              "y": 112.0
            },
            {
              "x": 272.0,
              "y": 112.0
            },
            {
              "x": 272.0,
              "y": 128.0
            },
            {
              "x": 240.0,
              "y": 128.0
            }
          ]
        },
        {
          "id": 9,
          "name": "",
          "type": "solid",
          "x": 0,
          "y": 0,
          "width": 0,
          "height": 0,
          "rotation": 0,
          "visible": true,
          "polygon": [
            {
              "x": 288.0,
              "y": 112.0
            },
            {
              "x": 416.0,
              "y": 112.0
            },
            {
              "x": 416.0,
              "y": 144.0
            },
            {
              "x": 288.0,
              "y": 144.0
            }
          ]
        },
        {
          "id": 10,
          "name": "",
          "type": "solid",
          "x": 0,
          "y": 0,
          "width": 0,
          "height": 0,
          "rotation": 0,
          "visible": true,
          "polygon": [
            {
              "x": 96.0,
              "y": 128.0
            },
            {
              "x": 192.0,
              "y": 128.0
            },
            {
              "x": 192.0,
              "y": 144.0
            },
            {
              "x": 96.0,
              "y": 144.0
            }
          ]
        },
        {
          "id": 11,
          "name": "",
          "type": "solid",
          "x": 0,
          "y": 0,
          "width": 0,
          "height": 0,
          "rotation": 0,
          "visible": true,
          "polygon": [
            {
              "x": 96.0,
              "y": 144.0
            },
            {
              "x": 128.0,
              "y": 144.0
            },
            {
              "x": 128.0,
              "y": 272.0
            },
            {
              "x": 96.0,
              "y": 272.0
            }
          ]
        },
        {
          "id": 12,
          "name": "",
          "type": "solid",
          "x": 0,
          "y": 0,
          "width": 0,
          "height": 0,
          "rotation": 0,
          "visible": true,
          "polygon": [
            {
              "x": 304.0,
              "y": 144.0
            },
            {
              "x": 416.0,
              "y": 144.0
            },
            {
              "x": 416.0,
              "y": 160.0
            },
            {
              "x": 304.0,
              "y": 160.0
            }
          ]
        },
        {
          "id": 13,
          "name": "",
          "type": "solid",
          "x": 0,
          "y": 0,
          "width": 0,
          "height": 0,
          "rotation": 0,
          "visible": true,
          "polygon": [
            {
              "x": 128.0,
              "y": 160.0
            },
            {
              "x": 192.0,
              "y": 160.0
            },
            {
              "x": 192.0,
              "y": 240.0
            },
            {
              "x": 128.0,
              "y": 240.0
            }
          ]
        },
        {
          "id": 14,
          "name": "",
          "type": "solid",
          "x": 0,
          "y": 0,
          "width": 0,
          "height": 0,
          "rotation": 0,
          "visible": true,
          "polygon": [
            {
              "x": 336.0,
              "y": 160.0
            },
            {
              "x": 368.0,
              "y": 160.0
            },
            {
              "x": 368.0,
              "y": 176.0
            },
            {
              "x": 336.0,
              "y": 176.0
            }
          ]
        },
        {
          "id": 15,
          "name": "",
          "type": "solid",
          "x": 0,
          "y": 0,
          "width": 0,
          "height": 0,
          "rotation": 0,
          "visible": true,
          "polygon": [
            {
              "x": 192.0,
              "y": 176.0
            },
            {
              "x": 288.0,
              "y": 176.0
            },
            {
              "x": 288.0,
              "y": 192.0
            },
            {
              "x": 192.0,
              "y": 192.0
            }
          ]
        },
        {
          "id": 16,
          "name": "",
          "type": "solid",
          "x": 0,
          "y": 0,
          "width": 0,
          "height": 0,
          "rotation": 0,
          "visible": true,
          "polygon": [
            {
              "x": 352.0,
              "y": 176.0
            },
            {
              "x": 368.0,
              "y": 176.0
            },
            {
              "x": 368.0,
              "y": 192.0
            },
            {
              "x": 352.0,
              "y": 192.0
            }
          ]
        },
        {
          "id": 17,
          "name": "",
          "type": "solid",
          "x": 0,
          "y": 0,
          "width": 0,
          "height": 0,
          "rotation": 0,
          "visible": true,
          "polygon": [
            {
              "x": 192.0,
              "y": 192.0
            },
            {
              "x": 224.0,
              "y": 192.0
            },
            {
              "x": 224.0,
              "y": 224.0
            },
            {
              "x": 192.0,
              "y": 224.0
            }
          ]
        },
        {
          "id": 18,
          "name": "",
          "type": "solid",
          "x": 0,
          "y": 0,
          "width": 0,
          "height": 0,
          "rotation": 0,
          "visible": true,
          "polygon": [
            {
              "x": 368.0,
              "y": 192.0
            },
            {
              "x": 448.0,
              "y": 192.0
            },
            {
              "x": 448.0,
              "y": 208.0
            },
            {
              "x": 368.0,
              "y": 208.0
            }
          ]
        },
        {
          "id": 19,
          "name": "",
          "type": "solid",
          "x": 0,
          "y": 0,
          "width": 0,
          "height": 0,
          "rotation": 0,
          "visible": true,
          "polygon": [
            {
              "x": 384.0,
              "y": 208.0
            },
            {
              "x": 448.0,
              "y": 208.0
            },
            {
              "x": 448.0,
              "y": 320.0
            },
            {
              "x": 384.0,
              "y": 320.0
            }
          ]
        },
        {
          "id": 20,
          "name": "",
          "type": "solid",
          "x": 0,
          "y": 0,
          "width": 0,
          "height": 0,
          "rotation": 0,
          "visible": true,
          "polygon": [
            {
              "x": 48.0,
              "y": 224.0
            },
            {
              "x": 96.0,
              "y": 224.0
            },
            {
              "x": 96.0,
              "y": 256.0
            },
            {
              "x": 48.0,
              "y": 256.0
            }
          ]
        },
        {
          "id": 21,
          "name": "",
          "type": "solid",
          "x": 0,
          "y": 0,
          "width": 0,
          "height": 0,
          "rotation": 0,
          "visible": true,
          "polygon": [
            {
              "x": 192.0,
              "y": 224.0
            },
            {
              "x": 208.0,
              "y": 224.0
            },
            {
              "x": 208.0,
              "y": 240.0
            },
            {
              "x": 192.0,
              "y": 240.0
            }
          ]
        },
        {
          "id": 22,
          "name": "",
          "type": "solid",
          "x": 0,
          "y": 0,
          "width": 0,
          "height": 0,
          "rotation": 0,
          "visible": true,
          "polygon": [
            {
              "x": 304.0,
              "y": 224.0
            },
            {
              "x": 384.0,
              "y": 224.0
            },
            {
              "x": 384.0,
              "y": 240.0
            },
            {
              "x": 304.0,
              "y": 240.0
            }
          ]
        },
        {
          "id": 23,
          "name": "",
          "type": "solid",
          "x": 0,
          "y": 0,
          "width": 0,
          "height": 0,
          "rotation": 0,
          "visible": true,
          "polygon": [
            {
              "x": 128.0,
              "y": 240.0
            },
            {
              "x": 144.0,
              "y": 240.0
            },
            {
              "x": 144.0,
              "y": 256.0
            },
            {
              "x": 128.0,
              "y": 256.0
            }
          ]
        },
        {
          "id": 24,
          "name": "",
          "type": "solid",
          "x": 0,
          "y": 0,
          "width": 0,
          "height": 0,
          "rotation": 0,
          "visible": true,
          "polygon": [
            {
              "x": 368.0,
              "y": 240.0
            },
            {
              "x": 384.0,
              "y": 240.0
            },
            {
              "x": 384.0,
              "y": 352.0
            },
            {
              "x": 368.0,
              "y": 352.0
            }
          ]
        },
        {
          "id": 25,
          "name": "",
          "type": "solid",
          "x": 0,
          "y": 0,
          "width": 0,
          "height": 0,
          "rotation": 0,
          "visible": true,
          "polygon": [
            {
              "x": 80.0,
              "y": 256.0
            },
            {
              "x": 96.0,
              "y": 256.0
            },
            {
              "x": 96.0,
              "y": 368.0
            },
            {
              "x": 80.0,
              "y": 368.0
            }
          ]
        },
        {
          "id": 26,
          "name": "",
          "type": "solid",
          "x": 0,
          "y": 0,
          "width": 0,
          "height": 0,
          "rotation": 0,
          "visible": true,
          "polygon": [
            {
              "x": 288.0,
              "y": 256.0
            },
            {
              "x": 368.0,
              "y": 256.0
            },
            {
              "x": 368.0,
              "y": 336.0
            },
            {
              "x": 288.0,
              "y": 336.0
            }
          ]
        },
        {
          "id": 27,
          "name": "",
          "type": "solid",
          "x": 0,
          "y": 0,
          "width": 0,
          "height": 0,
          "rotation": 0,
          "visible": true,
          "polygon": [
            {
              "x": 96.0,
              "y": 272.0
            },
            {
              "x": 112.0,
              "y": 272.0
            },
            {
              "x": 112.0,
              "y": 304.0
            },
            {
              "x": 96.0,
              "y": 304.0
            }
          ]
        },
        {
          "id": 28,
          "name": "",
          "type": "solid",
          "x": 0,
          "y": 0,
          "width": 0,
          "height": 0,
          "rotation": 0,
          "visible": true,
          "polygon": [
            {
              "x": 208.0,
              "y": 272.0
            },
            {
              "x": 288.0,
              "y": 272.0
            },
            {
              "x": 288.0,
              "y": 288.0
            },
            {
              "x": 208.0,
              "y": 288.0
            }
          ]
        },
        {
          "id": 29,
          "name": "",
          "type": "solid",
          "x": 0,
          "y": 0,
          "width": 0,
          "height": 0,
          "rotation": 0,
          "visible": true,
          "polygon": [
            {
              "x": 0.0,
              "y": 288.0
            },
            {
              "x": 80.0,
              "y": 288.0
            },
            {
              "x": 80.0,
              "y": 368.0
            },
            {
              "x": 0.0,
              "y": 368.0
            }
          ]
        },
        {
          "id": 30,
          "name": "",
          "type": "solid",
          "x": 0,
          "y": 0,
          "width": 0,
          "height": 0,
          "rotation": 0,
          "visible": true,
          "polygon": [
            {
              "x": 240.0,
              "y": 288.0
            },
            {
              "x": 288.0,
              "y": 288.0
            },
            {
              "x": 288.0,
              "y": 320.0
            },
            {
              "x": 240.0,
              "y": 320.0
            }
          ]
        },
        {
          "id": 31,
          "name": "",
          "type": "solid",
          "x": 0,
          "y": 0,
          "width": 0,
          "height": 0,
          "rotation": 0,
          "visible": true,
          "polygon": [
            {
              "x": 112.0,
              "y": 320.0
            },
            {
              "x": 192.0,
              "y": 320.0
            },
            {
              "x": 192.0,
              "y": 336.0
            },
            {
              "x": 112.0,
              "y": 336.0
            }
          ]
        },
        {
          "id": 32,
          "name": "",
          "type": "solid",
          "x": 0,
          "y": 0,
          "width": 0,
          "height": 0,
          "rotation": 0,
          "visible": true,
          "polygon": [
            {
              "x": 256.0,
              "y": 320.0
            },
            {
              "x": 288.0,
              "y": 320.0
            },
            {
              "x": 288.0,
              "y": 336.0
            },
            {
              "x": 256.0,
              "y": 336.0
            }
          ]
        },
        {
          "id": 33,
          "name": "",
          "type": "solid",
          "x": 0,
          "y": 0,
          "width": 0,
          "height": 0,
          "rotation": 0,
          "visible": true,
          "polygon": [
            {
              "x": 384.0,
              "y": 320.0
            },
            {
              "x": 400.0,
              "y": 320.0
            },
            {
              "x": 400.0,
              "y": 352.0
            },
            {
              "x": 384.0,
              "y": 352.0
            }
          ]
        },
        {
          "id": 34,
          "name": "",
          "type": "solid",
          "x": 0,
          "y": 0,
          "width": 0,
          "height": 0,
          "rotation": 0,
          "visible": true,
          "polygon": [
            {
              "x": 304.0,
              "y": 336.0
            },
            {
              "x": 368.0,
              "y": 336.0
            },
            {
              "x": 368.0,
              "y": 352.0
            },
            {
              "x": 304.0,
              "y": 352.0
            }
          ]
        },
        {
          "id": 35,
          "name": "",
          "type": "solid",
          "x": 0,
          "y": 0,
          "width": 0,
          "height": 0,
          "rotation": 0,
          "visible": true,
          "polygon": [
            {
              "x": 96.0,
              "y": 352.0
            },
            {
              "x": 112.0,
              "y": 352.0
            },
            {
              "x": 112.0,
              "y": 368.0
            },
            {
              "x": 96.0,
              "y": 368.0
            }
          ]
        },
        {
          "id": 36,
          "name": "",
          "type": "solid",
          "x": 0,
          "y": 0,
          "width": 0,
          "height": 0,
          "rotation": 0,
          "visible": true,
          "polygon": [
            {
              "x": 144.0,
              "y": 352.0
            },
            {
              "x": 192.0,
              "y": 352.0
            },
            {
              "x": 192.0,
              "y": 448.0
            },
            {
              "x": 144.0,
              "y": 448.0
            }
          ]
        },
        {
          "id": 37,
          "name": "",
          "type": "solid",
          "x": 0,
          "y": 0,
          "width": 0,
          "height": 0,
          "rotation": 0,
          "visible": true,
          "polygon": [
            {
              "x": 336.0,
              "y": 352.0
            },
            {
              "x": 368.0,
              "y": 352.0
            },
            {
              "x": 368.0,
              "y": 368.0
            },
            {
              "x": 336.0,
              "y": 368.0
            }
          ]
        },
        {
          "id": 38,
          "name": "",
          "type": "solid",
          "x": 0,
          "y": 0,
          "width": 0,
          "height": 0,
          "rotation": 0,
          "visible": true,
          "polygon": [
            {
              "x": 192.0,
              "y": 368.0
            },
            {
              "x": 288.0,
              "y": 368.0
            },
            {
              "x": 288.0,
              "y": 384.0
            },
            {
              "x": 192.0,
              "y": 384.0
            }
          ]
        },
        {
          "id": 39,
          "name": "",
          "type": "solid",
          "x": 0,
          "y": 0,
          "width": 0,
          "height": 0,
          "rotation": 0,
          "visible": true,
          "polygon": [
            {
              "x": 352.0,
              "y": 368.0
            },
            {
              "x": 368.0,
              "y": 368.0
            },
            {
              "x": 368.0,
              "y": 384.0
            },
            {
              "x": 352.0,
              "y": 384.0
            }
          ]
        },
        {
          "id": 40,
          "name": "",
          "type": "solid",
          "x": 0,
          "y": 0,
          "width": 0,
          "height": 0,
          "rotation": 0,
          "visible": true,
          "polygon": [
            {
              "x": 192.0,
              "y": 384.0
            },
            {
              "x": 224.0,
              "y": 384.0
            },
            {
              "x": 224.0,
              "y": 416.0
            },
            {
              "x": 192.0,
              "y": 416.0
            }
          ]
        },
        {
          "id": 41,
          "name": "",
          "type": "solid",
          "x": 0,
          "y": 0,
          "width": 0,
          "height": 0,
          "rotation": 0,
          "visible": true,
          "polygon": [
            {
              "x": 368.0,
              "y": 384.0
            },
            {
              "x": 448.0,
              "y": 384.0
            },
            {
              "x": 448.0,
              "y": 400.0
            },
            {
              "x": 368.0,
              "y": 400.0
            }
          ]
        },
        {
          "id": 42,
          "name": "",
          "type": "solid",
          "x": 0,
          "y": 0,
          "width": 0,
          "height": 0,
          "rotation": 0,
          "visible": true,
          "polygon": [
            {
              "x": 384.0,
              "y": 400.0
            },
            {
              "x": 448.0,
              "y": 400.0
            },
            {
              "x": 448.0,
              "y": 560.0
            },
            {
              "x": 384.0,
              "y": 560.0
            }
          ]
        },
        {
          "id": 43,
          "name": "",
          "type": "solid",
          "x": 0,
          "y": 0,
          "width": 0,
          "height": 0,
          "rotation": 0,
          "visible": true,
          "polygon": [
            {
              "x": 48.0,
              "y": 416.0
            },
            {
              "x": 144.0,
              "y": 416.0
            },
            {
              "x": 144.0,
              "y": 448.0
            },
            {
              "x": 48.0,
              "y": 448.0
            }
          ]
        },
        {
          "id": 44,
          "name": "",
          "type": "solid",
          "x": 0,
          "y": 0,
          "width": 0,
          "height": 0,
          "rotation": 0,
          "visible": true,
          "polygon": [
            {
              "x": 192.0,
              "y": 416.0
            },
            {
              "x": 208.0,
              "y": 416.0
            },
            {
              "x": 208.0,
              "y": 448.0
            },
            {
              "x": 192.0,
              "y": 448.0
            }
          ]
        },
        {
          "id": 45,
          "name": "",
          "type": "solid",
          "x": 0,
          "y": 0,
          "width": 0,
          "height": 0,
          "rotation": 0,
          "visible": true,
          "polygon": [
            {
              "x": 304.0,
              "y": 416.0
            },
            {
              "x": 384.0,
              "y": 416.0
            },
            {
              "x": 384.0,
              "y": 432.0
            },
            {
              "x": 304.0,
              "y": 432.0
            }
          ]
        },
        {
          "id": 46,
          "name": "",
          "type": "solid",
          "x": 0,
          "y": 0,
          "width": 0,
          "height": 0,
          "rotation": 0,
          "visible": true,
          "polygon": [
            {
              "x": 368.0,
              "y": 432.0
            },
            {
              "x": 384.0,
              "y": 432.0
            },
            {
              "x": 384.0,
              "y": 480.0
            },
            {
              "x": 368.0,
              "y": 480.0
            }
          ]
        },
        {
          "id": 47,
          "name": "",
          "type": "solid",
          "x": 0,
          "y": 0,
          "width": 0,
          "height": 0,
          "rotation": 0,
          "visible": true,
          "polygon": [
            {
              "x": 80.0,
              "y": 448.0
            },
            {
              "x": 144.0,
              "y": 448.0
            },
            {
              "x": 144.0,
              "y": 560.0
            },
            {
              "x": 80.0,
              "y": 560.0
            }
          ]
        },
        {
          "id": 48,
          "name": "",
          "type": "solid",
          "x": 0,
          "y": 0,
          "width": 0,
          "height": 0,
          "rotation": 0,
          "visible": true,
          "polygon": [
            {
              "x": 336.0,
              "y": 448.0
            },
            {
              "x": 368.0,
              "y": 448.0
            },
            {
              "x": 368.0,
              "y": 464.0
            },
            {
              "x": 336.0,
              "y": 464.0
            }
          ]
        },
        {
          "id": 49,
          "name": "",
          "type": "solid",
          "x": 0,
          "y": 0,
          "width": 0,
          "height": 0,
          "rotation": 0,
          "visible": true,
          "polygon": [
            {
              "x": 208.0,
              "y": 464.0
            },
            {
              "x": 288.0,
              "y": 464.0
            },
            {
              "x": 288.0,
              "y": 480.0
            },
            {
              "x": 208.0,
              "y": 480.0
            }
          ]
        },
        {
          "id": 50,
          "name": "",
          "type": "solid",
          "x": 0,
          "y": 0,
          "width": 0,
          "height": 0,
          "rotation": 0,
          "visible": true,
          "polygon": [
            {
              "x": 352.0,
              "y": 464.0
            },
            {
              "x": 368.0,
              "y": 464.0
            },
            {
              "x": 368.0,
              "y": 480.0
            },
            {
              "x": 352.0,
              "y": 480.0
            }
          ]
        },
        {
          "id": 51,
          "name": "",
          "type": "solid",
          "x": 0,
          "y": 0,
          "width": 0,
          "height": 0,
          "rotation": 0,
          "visible": true,
          "polygon": [
            {
              "x": 0.0,
              "y": 480.0
            },
            {
              "x": 80.0,
              "y": 480.0
            },
            {
              "x": 80.0,
              "y": 560.0
            },
            {
              "x": 0.0,
              "y": 560.0
            }
          ]
        },
        {
          "id": 52,
          "name": "",
          "type": "solid",
          "x": 0,
          "y": 0,
          "width": 0,
          "height": 0,
          "rotation": 0,
          "visible": true,
          "polygon": [
            {
              "x": 304.0,
              "y": 512.0
            },
            {
              "x": 384.0,
              "y": 512.0
            },
            {
              "x": 384.0,
              "y": 528.0
            },
            {
              "x": 304.0,
              "y": 528.0
            }
          ]
        },
        {
          "id": 53,
          "name": "",
          "type": "solid",
          "x": 0,
          "y": 0,
          "width": 0,
          "height": 0,
          "rotation": 0,
          "visible": true,
          "polygon": [
            {
              "x": 368.0,
              "y": 528.0
            },
            {
              "x": 384.0,
              "y": 528.0
            },
            {
              "x": 384.0,
              "y": 560.0
            },
            {
              "x": 368.0,
              "y": 560.0
            }
          ]
        },
        {
          "id": 54,
          "name": "",
          "type": "solid",
          "x": 0,
          "y": 0,
          "width": 0,
          "height": 0,
          "rotation": 0,
          "visible": true,
          "polygon": [
            {
              "x": 336.0,
              "y": 544.0
            },
            {
              "x": 368.0,
              "y": 544.0
            },
            {
              "x": 368.0,
              "y": 560.0
            },
            {
              "x": 336.0,
              "y": 560.0
            }
          ]
        },
        {
          "id": 55,
          "name": "",
          "type": "solid",
          "x": 0,
          "y": 0,
          "width": 0,
          "height": 0,
          "rotation": 0,
          "visible": true,
          "polygon": [
            {
              "x": 208.0,
              "y": 560.0
            },
            {
              "x": 288.0,
              "y": 560.0
            },
            {
              "x": 288.0,
              "y": 576.0
            },
            {
              "x": 208.0,
              "y": 576.0
            }
          ]
        }
      ]
    },
    {
      "id": 3,
      "name": "entities",
      "type": "objectgroup",
      "visible": true,
      "opacity": 1,
      "draworder": "topdown",
      "x": 0,
      "y": 0,
      "objects": []
    }
  ]
}
